src/img/icono-mipanel.svg

<svg width="27" height="24" viewBox="0 0 27 24" fill="none" xmlns="http://www.w3.org/2000/svg">
<path d="M7.25977 3.13477C7.25977 3.99414 6.94727 4.72656 6.32227 5.33203C5.7168 5.9375 4.98438 6.24023 4.125 6.24023C3.26562 6.24023 2.52344 5.9375 1.89844 5.33203C1.29297 4.72656 0.990234 3.99414 0.990234 3.13477C0.990234 2.25586 1.29297 1.51367 1.89844 0.908203C2.52344 0.302734 3.26562 0 4.125 0C4.98438 0 5.7168 0.302734 6.32227 0.908203C6.94727 1.51367 7.25977 2.25586 7.25977 3.13477ZM7.25977 11.8652C7.25977 12.7441 6.94727 13.4863 6.32227 14.0918C5.7168 14.6973 4.98438 15 4.125 15C3.26562 15 2.52344 14.6973 1.89844 14.0918C1.29297 13.4863 0.990234 12.7441 0.990234 11.8652C0.990234 11.0059 1.29297 10.2734 1.89844 9.66797C2.52344 9.0625 3.26562 8.75977 4.125 8.75977C4.98438 8.75977 5.7168 9.0625 6.32227 9.66797C6.94727 10.2734 7.25977 11.0059 7.25977 11.8652ZM7.25977 20.625C7.25977 21.4844 6.94727 22.2168 6.32227 22.8223C5.7168 23.4473 4.98438 23.7598 4.125 23.7598C3.26562 23.7598 2.52344 23.4473 1.89844 22.8223C1.29297 22.2168 0.990234 21.4844 0.990234 20.625C0.990234 19.7656 1.29297 19.0332 1.89844 18.4277C2.52344 17.8027 3.26562 17.4902 4.125 17.4902C4.98438 17.4902 5.7168 17.8027 6.32227 18.4277C6.94727 19.0332 7.25977 19.7656 7.25977 20.625ZM22.875 3.75H10.3652C10.209 3.75 10.0625 3.69141 9.92578 3.57422C9.80859 3.4375 9.75 3.29102 9.75 3.13477C9.75 2.95898 9.80859 2.8125 9.92578 2.69531C10.0625 2.55859 10.209 2.49023 10.3652 2.49023H22.875C23.0508 2.49023 23.1973 2.55859 23.3145 2.69531C23.4316 2.8125 23.4902 2.95898 23.4902 3.13477C23.4902 3.29102 23.4316 3.4375 23.3145 3.57422C23.1973 3.69141 23.0508 3.75 22.875 3.75ZM25.3652 12.5098H10.3652C10.209 12.5098 10.0625 12.4512 9.92578 12.334C9.80859 12.1973 9.75 12.041 9.75 11.8652C9.75 11.709 9.80859 11.5723 9.92578 11.4551C10.0625 11.3184 10.209 11.25 10.3652 11.25H25.3652C25.541 11.25 25.6875 11.3184 25.8047 11.4551C25.9414 11.5723 26.0098 11.709 26.0098 11.8652C26.0098 12.041 25.9414 12.1973 25.8047 12.334C25.6875 12.4512 25.541 12.5098 25.3652 12.5098ZM17.8652 21.2402H10.3652C10.209 21.2402 10.0625 21.1816 9.92578 21.0645C9.80859 20.9473 9.75 20.8008 9.75 20.625C9.75 20.4492 9.80859 20.3027 9.92578 20.1855C10.0625 20.0684 10.209 20.0098 10.3652 20.0098H17.8652C18.041 20.0098 18.1875 20.0684 18.3047 20.1855C18.4414 20.3027 18.5098 20.4492 18.5098 20.625C18.5098 20.8008 18.4414 20.9473 18.3047 21.0645C18.1875 21.1816 18.041 21.2402 17.8652 21.2402Z" fill="#56504C"/>
</svg>

<svg width="27" height="24" fill="none" xmlns="http://www.w3.org/2000/svg"><path d="M7.26 3.135c0 .86-.313 1.592-.938 2.197a2.993 2.993 0 01-2.197.908 3.09 3.09 0 01-2.227-.908A2.993 2.993 0 01.99 3.135c0-.88.303-1.621.908-2.227A3.09 3.09 0 014.125 0c.86 0 1.592.303 2.197.908.625.606.938 1.348.938 2.227zm0 8.73c0 .88-.313 1.621-.938 2.227A2.993 2.993 0 014.125 15a3.09 3.09 0 01-2.227-.908c-.605-.606-.908-1.348-.908-2.227 0-.86.303-1.592.908-2.197a3.09 3.09 0 012.227-.908c.86 0 1.592.303 2.197.908.625.605.938 1.338.938 2.197zm0 8.76c0 .86-.313 1.592-.938 2.197-.605.625-1.338.938-2.197.938-.86 0-1.602-.313-2.227-.938a2.993 2.993 0 01-.908-2.197c0-.86.303-1.592.908-2.197.625-.625 1.368-.938 2.227-.938.86 0 1.592.313 2.197.938.625.605.938 1.338.938 2.197zM22.875 3.75h-12.51a.664.664 0 01-.44-.176.664.664 0 01-.175-.44c0-.175.059-.321.176-.439.136-.136.283-.205.44-.205h12.509a.56.56 0 01.44.205.597.597 0 01.175.44.665.665 0 01-.175.44.596.596 0 01-.44.175zm2.49 8.76h-15a.664.664 0 01-.44-.176.7.7 0 01-.175-.469c0-.156.059-.293.176-.41.136-.137.283-.205.44-.205h15c.175 0 .322.068.439.205a.527.527 0 01.205.41.645.645 0 01-.205.469.596.596 0 01-.44.176zm-7.5 8.73h-7.5a.665.665 0 01-.44-.175.596.596 0 01-.175-.44.6.6 0 01.176-.44.665.665 0 01.44-.175h7.5c.175 0 .322.058.439.175a.555.555 0 01.205.44.555.555 0 01-.205.44.597.597 0 01-.44.175z" fill="#56504C"/></svg>
